public/images/icons/copy.svg

<svg fill="none" height="24" viewBox="0 0 24 24" width="24" xmlns="http://www.w3.org/2000/svg"><g fill="#ed6834"><path d="m20 6h-12c-1.105 0-2 .895-2 2v12c0 1.105.895 2 2 2h12c1.105 0 2-.895 2-2v-12c0-1.105-.895-2-2-2zm0 14h-12v-12h12z"/><path d="m4 4h14v-2h-14c-1.105 0-2 .895-2 2v14h2z"/><path d="m7 7h14v14h-14z" opacity=".3"/></g></svg>

<svg width="24" height="24" viewBox="0 0 24 24" fill="none" xmlns="http://www.w3.org/2000/svg">
<path d="M20 6H8C6.895 6 6 6.895 6 8V20C6 21.105 6.895 22 8 22H20C21.105 22 22 21.105 22 20V8C22 6.895 21.105 6 20 6ZM20 20H8V8H20V20Z" fill="#ED6834"/>
<path d="M4 4H18V2H4C2.895 2 2 2.895 2 4V18H4V4Z" fill="#ED6834"/>
<path opacity="0.3" d="M7 7H21V21H7V7Z" fill="#ED6834"/>
</svg>
